X:1
T:Ballinamona
L:1/8
M:6/8
I:linebreak $
K:G
V:1 treble 
V:1
 G | G>AG g>fg | a>gf g2 a | b>ag efg | d>ec B2 B/>A/ | G>AG g>fg | a>gf g2 a |$ bag efg | %8
 d>ec B>cd | e>cA/4 x2 A/B/A | e3 c>Bc | d>BG G>AG | d3 B>cd | e>cA A>BA |$ a3 f2 (3d/e/f/ | %15
 g>dB c>AF | (G3 G2) || %17
